X:1
T:Title
%%score { ( 1 3 5 ) | ( 2 4 ) }
L:1/8
M:4/4
K:F
V:1 treble nm="Grand Piano"
V:3 treble 
V:5 treble 
V:2 bass 
V:4 bass 
V:1
 z4 z2[Q:1/4=132] C2 | [A,CF]2 [A,CF]2 [A,CF]2 [A,CF]2 | [A,F]EFG A2 F2 | B2 [GB]2 A2 A2 | G6 z2 | %5
 A2 B2 c2 d2 | c4 z4 | E2 G2 D2 [=B,G]2 | C6 C2 | [B,EG]2 [B,EG]2 [B,EG]2 [B,EG]2 | F4 z4 | %11
 [B,FB]2 [B,FB]2 c2 c2 | d6 [Fd]2 | [Fd]2 ed [Fc]2 F2 | B2 .c2 z4 | G2 B2 A2 [EG]2 |[M:3/4] F6 | %17
[M:1/4][K:bass] C,2 |[M:4/4][K:treble] z2 c2 c2 d2 | c3 =B c2[K:bass] C,2 | z8 | %21
 A6[K:bass][K:treble] z2 | [Gc]2 [EG]2 G2 AG | c2 [FA]2 A2 A2 | G2 c2 c2 d2 | [Ec]6 C2 | c6 z2 | %27
 B6 z2 | A6 z2 | F6 z2 | [CEG]2 [CG]2 [CFA]2 [CFA]2 | [^Fd]2 c2 z4 | c2 c2 c2 E2 |[M:3/4] F6 |] %34
V:2
 z4 z2 C,2 | F,2 C,2 A,,2 F,,2 | z G,[F,C]-[F,B,C] [F,CF]2 [A,C]2 | %3
 [G,CE]2 [E,C]2 [F,CF]2 [F,CF]2 | [E,C]2 [D,=B,]2 [C,C]2 [C,C]2 | [F,CF]2 [G,CE]2 [A,CF]2 [B,F]2 | %6
 C4[K:bass] z4 | [G,C]2 [E,G,C]2 [G,=B,]2 [G,,F,]2 | [C,E,]6 C,2 | C,2 C,2 C,2 C,2 | %10
 D,2 z E F,2 F,_E, | D,2 D,2[K:treble] [F,A,F]2 [F,A,F]2 | [B,F]6[K:bass] [B,,B,]2 | %13
 [=B,,_A,]2 [B,,A,]2 [C,=A,]2 [A,C]2 | .[G,CF]2 [E,C]2 [F,CF]2 [F,CF]2 | %15
 [B,DF]2 [G,DG]2 [CF]2[K:bass] [C,B,]2 |[M:3/4] [F,A,]6 |[M:1/4] z2 | %18
[M:4/4] z2[K:treble] [A,F]2 [A,F]2 [B,F]2 | [A,F]3 [_A,F] [=A,F]2 z2 | z2 [CF]2 F-[B,F]A,B, | %21
 [CF]6[K:bass] [F,CF]2 | [E,C]2 [C,C]2 [CE]2 [B,CE]2 | [A,CF]2 [C,C]2 [F,CF]2 [^F,C_E]2 | %24
 [G,CE]2 [G,E]2 [G,E]2 [G,F]2 | [C,G,]6 z2 | z2 [F,A,]2 [F,A,]2 [^F,_E]2 | %27
 [G,DG]2 [G,D]2 [G,D]2 z2 | z2[K:bass] [A,,A,]2 [=B,,A,]2 ^C,2 | D,E,F,E, D,2 D,2 | %30
 C,2 E,2 F,2 F,_E, | z4[K:treble] .[G,G]2 z2 | [A,CF]2 [B,CG]2 [A,CF]2[K:bass] [G,B,C]2 | %33
[M:3/4] [F,A,C]6 |] %34
V:3
 x8 | x8 | C2 z2 z4 | x8 | z2 F2 E2 [EG]2 | x8 | z2 z B A2 GF | x8 | x8 | x8 | %10
 A,2 z G [CFA]2 [CFA]2 | x8 | x8 | z2 F2 z4 | z EG-[GB] A2 A2 | x8 |[M:3/4] x6 | %17
[M:1/4][K:bass] x2 |[M:4/4][K:treble] F,8- | F,6[K:bass] z2 | z2 A2 AGFG | %21
 z2[K:bass] C,2 F,2[K:treble] A2 | x8 | x8 | x8 | x8 | z2 F2 F2 [Ac]2 | z2 G2 G2 B2 | %28
 z2 ^C2 D2 [A,EG]2 | [A,D]2 [A,D]2 [A,D]2 [A,DF]2 | x8 | z A,^FA BA G2 | x8 |[M:3/4] x6 |] %34
V:4
 x8 | x8 | F,2 .A,2 z4 | x8 | x8 | x8 | [A,F]2[K:bass] G,2 [F,CF]2 [E,C][F,A,] | x8 | x8 | x8 | %10
 z2 C,2 z4 | x4[K:treble] x4 | x6[K:bass] x2 | x8 | x8 | x6[K:bass] x2 |[M:3/4] x6 |[M:1/4] x2 | %18
[M:4/4] x2[K:treble] x6 | x8 | z4 .C2 C2 | x6[K:bass] x2 | x8 | x8 | x8 | x8 | x8 | x8 | %28
 x2[K:bass] x6 | x8 | x8 | .[D,C]2 [D,A,][^F,_E][K:treble] E-[A,E^F] [B,E]2 | x6[K:bass] x2 | %33
[M:3/4] x6 |] %34
V:5
 x8 | x8 | x8 | x8 | x8 | x8 | z2 E2 z4 | x8 | x8 | x8 | z2 C2 z4 | x8 | x8 | x8 | x8 | x8 | %16
[M:3/4] x6 |[M:1/4][K:bass] x2 |[M:4/4][K:treble] x8 | x6[K:bass] x2 | F,8- | %21
 F,2[K:bass] z2 z4[K:treble] | x8 | x8 | x8 | x8 | x8 | x8 | x8 | x8 | x8 | x8 | x8 |[M:3/4] x6 |] %34

